X:492
T:
R:vals
S:Efter både Florsen och Laugren, som spelat den lika.
O:Gotland, Burs
M:3/4
L:1/8
K:D
D2 F2 A,2|D2 F2 A,2|DD FF AA|dd ff aa|C2 E2 A,2|C2 E2 A,2|CC EE AA|cc ee gg:|
fg a^g af|d2 dc d2|cd ed ed|cABcde|fg a^g af|d2 dc d2|cdeABc|d4
|:A2|Lf3 edc|BA GF ED|Lg3 fed|cB A^G A2|Lf3 edc|BAGFED|gfgAce|d4::
(3ABc|d2 [df][df][df][df]|d2 d2 d2|d4 f2|A2 f2 (d/e/)d|
c2 [ce][ce][ce][ce]|c2 c2 c2|e4 a2|(g/a/)g f2 e2|
Lf3 e dc|BAGFED|Lg3 fed|cBA^G A2|Lf3 edc|BAGFED|gfgAce|d4:|

